svg/fluentui-system-icons/ic_fluent_rectangle_landscape_16_regular.svg

<svg width="16" height="16" viewBox="0 0 16 16" fill="none" xmlns="http://www.w3.org/2000/svg">
<path d="M1 5.5C1 4.11929 2.11929 3 3.5 3H12.5C13.8807 3 15 4.11929 15 5.5V10.5C15 11.8807 13.8807 13 12.5 13H3.5C2.11929 13 1 11.8807 1 10.5V5.5ZM3.5 4C2.67157 4 2 4.67157 2 5.5V10.5C2 11.3284 2.67157 12 3.5 12H12.5C13.3284 12 14 11.3284 14 10.5V5.5C14 4.67157 13.3284 4 12.5 4H3.5Z" fill="#212121"/>
</svg>

<svg xmlns="http://www.w3.org/2000/svg" width="16" height="16"><path d="M1 5.5A2.5 2.5 0 0 1 3.5 3h9A2.5 2.5 0 0 1 15 5.5v5a2.5 2.5 0 0 1-2.5 2.5h-9A2.5 2.5 0 0 1 1 10.5v-5ZM3.5 4A1.5 1.5 0 0 0 2 5.5v5A1.5 1.5 0 0 0 3.5 12h9a1.5 1.5 0 0 0 1.5-1.5v-5A1.5 1.5 0 0 0 12.5 4h-9Z"/></svg>
